src/assets/imgs/contacts-page/instagram.svg

<svg fill="none" height="30" viewBox="0 0 31 30" width="31" xmlns="http://www.w3.org/2000/svg" xmlns:xlink="http://www.w3.org/1999/xlink"><clipPath id="a"><path d="m0 .166016h31v29h-31z"/></clipPath><g clip-path="url(#a)" fill="#040404"><path d="m21.7649.166016h-12.52983c-5.09224 0-9.23507 3.875554-9.23507 8.639254v11.72153c0 4.7637 4.14283 8.6392 9.23507 8.6392h12.52983c5.0923 0 9.2351-3.8755 9.2351-8.6392v-11.72153c-.0001-4.7637-4.1429-8.639254-9.2351-8.639254zm6.1165 20.360784c0 3.16-2.7385 5.7218-6.1165 5.7218h-12.52983c-3.37801 0-6.11647-2.5618-6.11647-5.7218v-11.72153c0-3.16012 2.73846-5.72186 6.11647-5.72186h12.52983c3.378 0 6.1165 2.56174 6.1165 5.72186z"/><path d="m15.5001 7.16553c-4.4209 0-8.01768 3.36467-8.01768 7.50037s3.59678 7.5004 8.01768 7.5004c4.421 0 8.0177-3.3646 8.0177-7.5004 0-4.1357-3.5967-7.50037-8.0177-7.50037zm0 12.08347c-2.7057 0-4.8991-2.0519-4.8991-4.583 0-2.5312 2.1935-4.5831 4.8991-4.5831 2.7057 0 4.8991 2.0519 4.8991 4.5831 0 2.5311-2.1934 4.583-4.8991 4.583z"/><path d="m23.5333 9.01932c1.061 0 1.9212-.80466 1.9212-1.79726s-.8602-1.79726-1.9212-1.79726c-1.0611 0-1.9212.80466-1.9212 1.79726s.8601 1.79726 1.9212 1.79726z"/></g></svg>

<svg width="31" height="30" viewBox="0 0 31 30" fill="none" xmlns="http://www.w3.org/2000/svg">
<g clip-path="url(#clip0)">
<path d="M21.7649 0.166016H9.23507C4.14283 0.166016 0 4.04157 0 8.80527V20.5268C0 25.2905 4.14283 29.166 9.23507 29.166H21.7649C26.8572 29.166 31 25.2905 31 20.5268V8.80527C30.9999 4.04157 26.8571 0.166016 21.7649 0.166016ZM27.8814 20.5268C27.8814 23.6868 25.1429 26.2486 21.7649 26.2486H9.23507C5.85706 26.2486 3.1186 23.6868 3.1186 20.5268V8.80527C3.1186 5.64515 5.85706 3.08341 9.23507 3.08341H21.7649C25.1429 3.08341 27.8814 5.64515 27.8814 8.80527V20.5268Z" fill="#040404"/>
<path d="M15.5001 7.16553C11.0792 7.16553 7.48242 10.5302 7.48242 14.6659C7.48242 18.8016 11.0792 22.1663 15.5001 22.1663C19.9211 22.1663 23.5178 18.8017 23.5178 14.6659C23.5178 10.5302 19.9211 7.16553 15.5001 7.16553ZM15.5001 19.249C12.7944 19.249 10.601 17.1971 10.601 14.666C10.601 12.1348 12.7945 10.0829 15.5001 10.0829C18.2058 10.0829 20.3992 12.1348 20.3992 14.666C20.3992 17.1971 18.2058 19.249 15.5001 19.249Z" fill="#040404"/>
<path d="M23.5333 9.01932C24.5943 9.01932 25.4545 8.21466 25.4545 7.22206C25.4545 6.22946 24.5943 5.4248 23.5333 5.4248C22.4722 5.4248 21.6121 6.22946 21.6121 7.22206C21.6121 8.21466 22.4722 9.01932 23.5333 9.01932Z" fill="#040404"/>
</g>
<defs>
<clipPath id="clip0">
<rect width="31" height="29" fill="white" transform="translate(0 0.166016)"/>
</clipPath>
</defs>
</svg>
